packages/icons/src/components/Icon/assets/small-solid/console.svg

<svg width="16" height="16" viewBox="0 0 16 16" fill="none" xmlns="http://www.w3.org/2000/svg">
<path fill-rule="evenodd" clip-rule="evenodd" d="M1 3.33333C1 2.04467 2.04467 1 3.33333 1H12.6667C13.9553 1 15 2.04467 15 3.33333V12.6667C15 13.9553 13.9553 15 12.6667 15H3.33333C2.04467 15 1 13.9553 1 12.6667V3.33333ZM3.58961 5.63128C3.24791 5.97299 3.24791 6.52701 3.58961 6.86872L4.7209 8L3.58961 9.13128C3.24791 9.47299 3.24791 10.027 3.58961 10.3687C3.93132 10.7104 4.48534 10.7104 4.82705 10.3687L6.57705 8.61872C6.91876 8.27701 6.91876 7.72299 6.57705 7.38128L4.82705 5.63128C4.48534 5.28957 3.93132 5.28957 3.58961 5.63128ZM8.875 8.58333C8.39175 8.58333 8 8.97508 8 9.45833C8 9.94158 8.39175 10.3333 8.875 10.3333H11.7917C12.2749 10.3333 12.6667 9.94158 12.6667 9.45833C12.6667 8.97508 12.2749 8.58333 11.7917 8.58333H8.875Z" fill="black"/>
</svg>

<svg xmlns="http://www.w3.org/2000/svg" width="16" height="16" fill="none" viewBox="0 0 16 16">
    <path d="M1 3.333A2.333 2.333 0 0 1 3.333 1h9.334A2.333 2.333 0 0 1 15 3.333v9.334A2.333 2.333 0 0 1 12.667 15H3.333A2.333 2.333 0 0 1 1 12.667zm2.59 2.298a.875.875 0 0 0 0 1.238L4.72 8 3.59 9.131a.875.875 0 0 0 1.237 1.238l1.75-1.75a.875.875 0 0 0 0-1.238l-1.75-1.75a.875.875 0 0 0-1.237 0m5.285 2.952a.875.875 0 1 0 0 1.75h2.917a.875.875 0 0 0 0-1.75z" clip-rule="evenodd"/>
</svg>
